X:1
T:R-172: Puncheon Floor
R: reel
M: 4/4
L: 1/8
K: G
|:"G"GFGA BABc |d2g2B4|d2g2d2g2 | dg2d2 cBA |
"G"GFGA BABc |d2g2B4|"G"d2g2"D"dBA2 |1"G"G6(3DEF :|2"G"G6|]
[K:D]fg|: "D"agfa "A"gfeg | "D"fed2 "A"e4| "D"fed2 "A"e2fg | "D"fed2 "A"e2fg |
"D"agfa "A"gfeg | "D"fed2 "A"e4|"D"fedf "A"edce |1"D"dcde "A"fefg :|2"D"d2 =c2 "D7"B2 A2||
%
